X: 48
T:Concertina Reel [in D], The
M:C|
L:1/8
R:Reel
K:D
A2FA BAFA|A2FA BAFA|B2cA BAcA|BAcA BAFA|!
A2FA BAFA|A2FA BAFE|FABc dcdB|1AFEF D2FG:|2AFEF D3F|!
|:Ad~d2 Ad~d2|Ad~d2 BAFA|B2cA BAcA|BAcA BAFA|!
Ad~d2 Ad~d2|Ad~d2 BAFE|FABc dcdB|1AFEF D3F:|2AFEF D2FG|]!
